X: 4
T: The Bunny's Hat
R: reel
M: 4/4
L: 1/8
K: Amin
|:EGAG BAGE|ABcd edcA|EGAE G3E|D E3 G A3|
EGAG BAGE|ABcd edcA|EGAc B G3|egdB cAAG:|
|:EG (3ABc d e3|d e3 dcBG|EG (3ABc d e3|dcBc G A3 |
EG (3ABc d e3|gdeg aged|c A3 BGBd|egdB cAAG:|


Tune 738	Setting 738

